!!!!SEGMENT: pl-kk--kk-i-494_anonim--o-salutaris-hostia.krn
!!!cenid: 18xx:1334
!!!COM: Anonim
!!!COM-rismid: pe30004985
!!!CDT:
!!!CNT:
!!!OTL: O salutaris hostia
!!!PDT:
!!!AGN: Sacred
!!!SMS-siglum: PL-Kk
!!!SMS-shelfmark: Kk.I.494
!!!SMS-shelfwork: W
!!!SMS-variant:
!!!SMS-altvar:
!!!NIFC-rismid: 1001136918
!!!URL-scan: http://repozytorium.nifc.pl/skany/pl-kk-nut--i-494
!!!ONB-nifc:
!!!key:
**kern	**kern	**dynam	**kern	**text	**dynam
*part2	*part2	*part2	*part1	*part1	*part1
*staff3	*staff2	*	*staff1	*staff1	*
*Ipiano	*Iempty	*	*Iempty	*	*
*I"[Piano]	*	*	*I"Duo	*	*
*I'[P.]	*	*	*I'D.	*	*
*clefF4	*clefG2	*	*clefG2	*	*
*k[f#c#]	*k[f#c#]	*	*k[f#c#]	*	*
*D:	*D:	*	*D:	*	*
*M4/4	*M4/4	*	*M4/4	*	*
*met(c)	*met(c)	*	*met(c)	*	*
*	*	*	*	*	*below
=1	=1	=1	=1	=1	=1
*	*	*	*^	*	*
!	!	!	!	!LO:TX:rj:a:t=Lento.	!	!LO:DY:a
2A\ 2D\	2f#/ 2d/	.	2dd/	2f#\	O	p<
2B\ 2D\	2g/ 2d/	.	4cc#/	4a\	sa-	.
.	.	.	4b/	4g\	-lu-	.
=2	=2	=2	=2	=2	=2	=2
!	!	!	!	!	!	!LO:DY:a
2c#\ 2D\	2g/ 2e/	.	2ee/	2g\	-ta-	[
2A\ 2G\	2e/ 2c#/	.	2a/	2g\	-ris,	>
=3	=3	=3	=3	=3	=3	=3
1B\ 1BB\	2f#/ 2d#X/	.	4a/	4f#\	sa-	] sf
.	.	.	4ccn/	4a\	-lu-	.
.	4g/ 4e/	.	4b/	4g\	-ta-	.
.	4f#/ 4d#/	.	4a/	4f#\	-ris	.
=4	=4	=4	=4	=4	=4	=4
2BB/ 2BBB/	2a/ 2d#X/ 2B/	.	4.dd#X/	4.f#\	Ho-	.
.	.	.	8dd#/	8f#\	-sti-	.
2E/ 2EE/	2g/ 2e/ 2B/	.	2ee/	2g\	-a,	.
*	*	*	*v	*v	*	*
=5||	=5||	=5||	=5||	=5||	=5||
*k[]	*k[]	*	*k[]	*	*
*	*	*	*^	*	*
1G\ 1C\	2ee/ 2g/ 2e/	.	2ee/	2g\	Quae	pp
.	4dd/ 4f/ 4d/	.	4dd/	4f\	coe-	.
.	4cc/ 4e/ 4c/	.	4cc/	4e\	-li	.
=6	=6	=6	=6	=6	=6	=6
1A\ 1C\	1f/ 1c/	.	2cc/	2f\	pan-	.
.	.	.	2a/	2f\	-dis	.
!!LO:LB:g=original
=7	=7	=7	=7	=7	=7	=7
1A-X\ 1C\	1cc/ 1f/ 1c/	.	2.cc/	2.a-X\	Os-	.
.	.	.	4cc/	4a-\	-ti-	.
=8	=8	=8	=8	=8	=8	=8
1G\ 1C\	1cc/ 1g/ 1e/ 1c/	.	2.ee/	2.g\	-um!	.
.	.	.	4r	4r	.	.
=9	=9	=9	=9	=9	=9	=9
!	!	!	!LO:TX:a:t=Choro	!	!	!
1c\ 1C\	2ee/ 2g/ 2e/	.	2ee/	2g\	Bel-	f
.	4ff/ 4a/ 4f/	.	4ff/	4a\	.	.
.	4ee/ 4g/ 4e/	.	4ee/	4g\	-la	.
=10	=10	=10	=10	=10	=10	=10
1A\ 1C\	1dd/ 1f#X/ 1d/	.	2dd/	2f#X\	pre-	.
.	.	.	2dd/	2f#\	-munt	.
=11	=11	=11	=11	=11	=11	=11
1G\ 1C\	2dd/ 2fn/ 2d/	.	2dd/	2fn\	ho-	.
.	4ee/ 4g/ 4e/	.	4ee/	4g\	-sti-	.
.	4dd/ 4f/ 4d/	.	4dd/	4f\	.	.
=12	=12	=12	=12	=12	=12	=12
1G\ 1C\	1cc/ 1g/ 1e/ 1c/	.	1cc/	1e\	-lia,	.
=13	=13	=13	=13	=13	=13	=13
1F/ 1AA/	2cc/ 2e/ 2c/	.	2cc/	2e\	Da-	p
.	4dd/ 4f/ 4d/	.	4dd/	4f\	-ro-	.
.	4cc/ 4e/ 4c/	.	4cc/	4e\	-bur,	.
!!LO:LB:g=original
=14	=14	=14	=14	=14	=14	=14
1F/ 1AA/	1b/ 1d/	.	2b/	2d\	fer	.
.	.	.	2b/	2d\	au-	.
=15	=15	=15	=15	=15	=15	=15
1G#X/ 1AA/	2b/ 2d/	.	2b/	2d\	-xi-	.
.	4cc/ 4e/	.	4cc/	4e\	.	.
.	4b/ 4d/	.	4b/	4d\	.	.
=16	=16	=16	=16	=16	=16	=16
1A\ 1E\ 1AA\	1a/ 1e/ 1c/	.	2.a/	2.c\	-lium.	.
.	.	.	4r	4r	.	.
=17	=17	=17	=17	=17	=17	=17
!	!	!	!LO:TX:a:t=Duo	!	!	!
1A\ 1AA\	2e/ 2c/	.	2e/	2c\	U-	.
.	4f/ 4d/	.	4f/	4d\	-ni	.
.	4e/ 4c/	.	4e/	4c\	tri-	.
=18	=18	=18	=18	=18	=18	=18
2A/ 2AA/	2e/ 2c/	.	4e/	4c\	-no-	.
.	.	.	4cc/	4e\	.	.
4BB/	4g#X/ 4e/ 4d/	.	4b/	4d\	.	.
4C/	4a/ 4e/ 4c/	.	4a/	4c\	-que	.
=19	=19	=19	=19	=19	=19	=19
1E/ 1EE/	1f/ 1d/ 1B/	.	2a/	8B\	Do-	.
.	.	.	.	2.f\	.	.
.	.	.	8a/L	.	.	.
.	.	.	8g#X/	.	.	.
.	.	.	8b/J	.	.	.
.	.	.	8a/	8f\	-mi-	.
!!LO:LB:g=original
=20	=20	=20	=20	=20	=20	=20
2E/ 2EE/	2g#X/ 2e/ 2B/	.	2g#X/	2e\	-no	.
2G/ 2GG/	2g#/ 2f/ 2d/	.	2r	2ryy	.	.
=21	=21	=21	=21	=21	=21	=21
!	!	!	!	!	!	!LO:HP:a
1c\ 1C\	2g/ 2e/	f	2g/	2e\	Sit	<
.	4a/ 4f/	.	4a/	4f\	sem-	.
.	4g/ 4e/	.	4g/	4e\	-pi-	.
=22	=22	=22	=22	=22	=22	=22
2c/ 2C/	2g/ 2e/	.	4g/	4e\	-ter-	.
.	.	.	4ee/	4g\	.	.
4B/ 4C/	4dd/ 4f/ 4d/	.	4dd/	4f\	.	.
4G/ 4C/	4cc/ 4e/ 4c/	.	4cc/	4e\	-na	.
=23	=23	=23	=23	=23	=23	=23
1G#X\ 1C\	1cc/ 1f/ 1d/	.	1cc/	1g#X\	glo-	.
=24	=24	=24	=24	=24	=24	=24
1G/ 1GG/	1b/ 1g/ 1d/ 1B/	.	2ryy	1b\ 1g\	-ria,	[[
.	.	.	2r	.	.	.
*	*	*	*v	*v	*	*
=25	=25	=25	=25	=25	=25
!	!	!	!LO:TX:a:t=Solo	!	!
4C/ 4CC/	4c/ 4G/ 4E-X/	.	4c/	Qui	.
4BB/ 4BBB/	4d/ 4G/ 4F/	.	4d/	.	.
4E-X/ 4EE-X/	4e-X/ 4B-X/ 4G/	.	4e-X/	[[vi-	.
4D/ 4DD/	4f/ 4Bn/ 4G/	.	4f/	-tam]]	.
=26	=26	=26	=26	=26	=26
1C/ 1CC/	4.g/ 4.e-X/ 4.c/ 4.G/	.	4.g/	vi-	.
.	8a-X/ 8f/ 8c/ 8A-X/	.	8a-X/	.	.
.	2g/ 2e-/ 2c/ 2G/	.	2g/	-tam	.
!!LO:PB:g=original
=27	=27	=27	=27	=27	=27
2A-X/ 2AA-X/	2cc/ 2a-X/ 2e-X/ 2c/	.	2cc/	si-	.
4G/ 4GG/	4b-X/ 4e-/ 4B-X/	.	4b-X/	.	.
4F/ 4FF/	4a-/ 4d/ 4B-/	.	4a-X/	-ne	.
=28	=28	=28	=28	=28	=28
4.E-X/ 4.EE-X/	4.g/ 4.e-X/ 4.B-X/ 4.G/	.	4.g/	ter-	.
8D/ 8DD/	8f/ 8Bn/ 8G/	.	8f/	-mi-	.
2C/ 2CC/	2e-/ 2c/ 2G/	.	2e-X/	-no	.
=29	=29	=29	=29	=29	=29
1F#X/ 1FF#X/	1d/ 1A/	.	2.d/	vo-	.
.	.	.	4d/	-bis	.
=30	=30	=30	=30	=30	=30
4G/ 4GG/	4d/ 4B/	.	4d/	do-	.
2.G/ 2.GG/	4d/ 4B/	.	4d/	-net	.
.	2r	.	2r	.	.
=31	=31	=31	=31	=31	=31
*	*	*	*^	*	*
!	!	!	!LO:TX:a:t=Choro.	!	!	!
1G/ 1GG/	1e-X/ 1c/	.	2.e-X/	2.c\	No-	.
.	.	.	4e-/	4c\	-bis	.
=32	=32	=32	=32	=32	=32	=32
4G/ 4GG/	4en/ 4c#X/	.	4en/	4c#X\	do-	.
2.G/ 2.GG/	4e/ 4c#/	.	4e/	4c#\	-net	.
.	2r	.	2r	2ryy	.	.
!!LO:LB:g=original
=33	=33	=33	=33	=33	=33	=33
1G/ 1GG/	1f/ 1d/ 1B/	f	4f/	4d\	No-	.
.	.	.	4f/	4d\	-bis	.
.	.	.	4f/	4d\	do-	.
.	.	.	8f/	8d\	-net	.
.	.	.	8f/	8d\	in	.
=34	=34	=34	=34	=34	=34	=34
1G/ 1GG/	1b/ 1f/ 1d/	ff	1dd/	1f\	pa-	.
=35	=35	=35	=35	=35	=35	=35
1G/ 1GG/	1dd/ 1g/ 1f/ 1d/	.	[1dd/	[1f\	-tria	.
=36	=36	=36	=36	=36	=36	=36
1B\ 1G\	1dd/ 1f/ 1d/	.	4dd/]	4f\]	.	.
.	.	.	4r	4ryy	.	.
.	.	.	2r	2ryy	.	.
=37	=37	=37	=37	=37	=37	=37
!	!LO:TX:t=P:problem=nuta d chyba jest skreślona	!	!LO:TX:a:t=Duo	!	!	!
1d\ 1D\	1dd/ 1a/ 1f/ 1d/	pp	1dd/	1f\	a-	pp
=38	=38	=38	=38	=38	=38	=38
1D/ 1DD/	1dd/ 1b-X/ 1g/ 1d/	.	1dd/	2g\	-men	.
.	.	.	.	2b-X\	.	.
=39	=39	=39	=39	=39	=39	=39
1A\ 1D\	1cc#X/ 1g/ 1e/	.	1cc#X/	1e\	a-	.
=40	=40	=40	=40	=40	=40	=40
1D/ 1DD/	1dd/ 1a/ 1f#X/ 1d/	.	1dd/	1f#X\	-men	.
*	*	*	*v	*v	*	*
!!LO:LB:g=original
=41	=41	=41	=41	=41	=41
*k[f#c#]	*k[f#c#]	*	*k[f#c#]	*	*
*	*	*	*^	*	*
!	!	!	!LO:TX:a:t=chór	!	!	!
2A\ 2D\	2f#/ 2d/	p	2dd/	2f#\	O	.
2B\ 2D\	2g/ 2d/	.	4cc#/	4a\	sa-	.
.	.	.	4b/	4g\	-lu-	.
=42	=42	=42	=42	=42	=42	=42
2c#\ 2D\	2g/ 2e/	.	2ee/	2g\	-ta-	.
2A\ 2G\	2e/ 2c#/	.	2a/	2g\	-ris	.
=43	=43	=43	=43	=43	=43	=43
1B\ 1BB\	2f#/ 2d#X/	.	4a/	4f#\	sa-	.
.	.	.	4ccn/	4a\	-lu-	.
.	4g/ 4e/	.	4b/	4g\	-ta-	.
.	4f#/ 4d#/	.	4a/	4f#\	-ris	.
=44	=44	=44	=44	=44	=44	=44
2BB/ 2BBB/	2a/ 2d#X/ 2B/	.	2dd#X/	2f#\	Hos-	.
2E/ 2EE/	2g/ 2e/ 2B/	.	2ee/	2g\	-tia	.
=45	=45	=45	=45	=45	=45	=45
1A\ 1AA\	2ee/ 2g/ 2e/	sf	2ee/	2g\	o	.
.	4dd/ 4f#/	.	4dd/	4f#\	sa-	.
.	4cc#/ 4g/	.	4cc#/	4g\	-lu-	.
=46	=46	=46	=46	=46	=46	=46
2A\ 2D\	2dd/ 2f#/ 2d/	>	2dd/	2f#\	-ta-	.
2G/ 2GG/	2b/ 2g/ 2d/	.	2b/	2g\	-ris	.
!!LO:LB:g=original
=47	=47	=47	=47	=47	=47	=47
1A\ 1AA\	2a/ 2f#/ 2d/	pp	2.a/	2f#\	Hos-	.
.	2a/ 2g/ 2e/	.	.	4g\	.	.
.	.	.	4a/	4e\	-ti-	.
=48	=48	=48	=48	=48	=48	=48
1A\ 1D\	1a/ 1f#/ 1d/	.	2.a/	2.f#\	-a!	.
.	.	.	4r	4r	.	.
*	*	*	*v	*v	*	*
==	==	==	==	==	==
*-	*-	*-	*-	*-	*-
!!!system-decoration: s1{(s2,s3)}
!!!RDF**dynam: > = dim.
!!!EED: Leszek Kubiak
!!!EST: 2021-01-02
!!!AIN: 1 empty 1 piano
!!!ENC: Andrzej Gręziak
!!!END: 2020-12-30
